build/svg/cmd/sc_iconsetformatdialog.svg

<?xml version="1.0" encoding="UTF-8" standalone="no"?>
<svg
   xmlns:dc="http://purl.org/dc/elements/1.1/"
   xmlns:cc="http://creativecommons.org/ns#"
   xmlns:rdf="http://www.w3.org/1999/02/22-rdf-syntax-ns#"
   xmlns:svg="http://www.w3.org/2000/svg"
   xmlns="http://www.w3.org/2000/svg"
   xmlns:sodipodi="http://sodipodi.sourceforge.net/DTD/sodipodi-0.dtd"
   xmlns:inkscape="http://www.inkscape.org/namespaces/inkscape"
   viewBox="0 0 16 16"
   version="1.1"
   id="svg10"
   sodipodi:docname="sc_iconsetformatdialog.svg"
   inkscape:export-filename="/home/jupiter007/Libreoffice yaru theme fullcolor/build/cmd/sc_iconsetformatdialog.png"
   inkscape:export-xdpi="96"
   inkscape:export-ydpi="96"
   inkscape:version="0.92.5 (2060ec1f9f, 2020-04-08)">
  <metadata
     id="metadata16">
    <rdf:RDF>
      <cc:Work
         rdf:about="">
        <dc:format>image/svg+xml</dc:format>
        <dc:type
           rdf:resource="http://purl.org/dc/dcmitype/StillImage" />
      </cc:Work>
    </rdf:RDF>
  </metadata>
  <defs
     id="defs14" />
  <sodipodi:namedview
     pagecolor="#ffffff"
     bordercolor="#666666"
     borderopacity="1"
     objecttolerance="10"
     gridtolerance="10"
     guidetolerance="10"
     inkscape:pageopacity="0"
     inkscape:pageshadow="2"
     inkscape:window-width="1920"
     inkscape:window-height="1011"
     id="namedview12"
     showgrid="true"
     inkscape:zoom="29.5"
     inkscape:cx="9.5155721"
     inkscape:cy="6.2606232"
     inkscape:window-x="0"
     inkscape:window-y="32"
     inkscape:window-maximized="1"
     inkscape:current-layer="svg10">
    <inkscape:grid
       type="xygrid"
       id="grid855" />
  </sodipodi:namedview>
  <path
     style="opacity:1;fill:#ffffff;fill-opacity:1;stroke:none;stroke-width:2;stroke-linejoin:round;stroke-miterlimit:4;stroke-dasharray:none;stroke-opacity:1"
     d="M 2.0000005,2 H 14 V 13 H 2.0000005 Z"
     id="rect841"
     inkscape:connector-curvature="0"
     sodipodi:nodetypes="ccccc" />
  <path
     style="opacity:1;fill:#6d6d6d;fill-opacity:1;stroke:none;stroke-width:2;stroke-linejoin:round;stroke-miterlimit:4;stroke-dasharray:none;stroke-opacity:1"
     d="m 4.0000005,1 c -2,0 -3,0 -3,2 v 9 c 0,2 1,2 3,2 H 12 c 2,0 3,0 3,-2 V 3 C 15,1 14,1 12,1 Z m -2,2 c 0,-1 1,-1 2,-1 H 12 c 1,0 2,0 2,1 v 9 c 0,1 -1,1 -2,1 H 4.0000005 c -1,0 -2,0 -2,-1 z"
     id="rect830"
     inkscape:connector-curvature="0"
     sodipodi:nodetypes="sssssssssccccccccc" />
  <path
     style="opacity:1;fill:#6d6d6d;fill-opacity:1;stroke:none;stroke-width:2;stroke-linejoin:round;stroke-miterlimit:4;stroke-dasharray:none;stroke-opacity:1"
     d="M 2.0000005,5 H 14 V 6 H 2.0000005 Z"
     id="rect847"
     inkscape:connector-curvature="0"
     sodipodi:nodetypes="ccccc" />
  <path
     style="opacity:1;fill:#6d6d6d;fill-opacity:1;stroke:none;stroke-width:2;stroke-linejoin:round;stroke-miterlimit:4;stroke-dasharray:none;stroke-opacity:1"
     d="M 2.0000005,9 H 14 v 1 H 2.0000005 Z"
     id="rect849"
     inkscape:connector-curvature="0"
     sodipodi:nodetypes="ccccc" />
  <rect
     style="opacity:1;fill:#6d6d6d;fill-opacity:1;stroke:none;stroke-width:2;stroke-linejoin:round;stroke-miterlimit:4;stroke-dasharray:none;stroke-opacity:1"
     id="rect869"
     width="1"
     height="11"
     x="7"
     y="2" />
  <circle
     r="3.5"
     cx="9.5"
     cy="12.5"
     id="circle861"
     style="opacity:1;vector-effect:none;fill:#c7162b;fill-opacity:1;stroke:none;stroke-width:3.49999976;stroke-linecap:butt;stroke-linejoin:round;stroke-miterlimit:4;stroke-dasharray:none;stroke-dashoffset:0;stroke-opacity:1" />
  <path
     d="m 6.9999998,12.000002 v 1 h 4.9999992 v -1 z"
     style="color:#000000;font-weight:400;line-height:normal;font-family:sans-serif;text-indent:0;text-align:start;text-decoration:none;text-decoration-line:none;text-decoration-style:solid;text-decoration-color:#000000;text-transform:none;white-space:normal;overflow:visible;isolation:auto;mix-blend-mode:normal;fill:#ffffff;fill-opacity:1;marker:none"
     font-weight="400"
     overflow="visible"
     id="path863"
     inkscape:connector-curvature="0"
     sodipodi:nodetypes="ccccc" />
  <circle
     style="opacity:1;vector-effect:none;fill:#46a926;fill-opacity:1;stroke:none;stroke-width:3.49999976;stroke-linecap:butt;stroke-linejoin:round;stroke-miterlimit:4;stroke-dasharray:none;stroke-dashoffset:0;stroke-opacity:1"
     id="path2644"
     cy="9.5"
     cx="12.5"
     r="3.5" />
  <path
     inkscape:connector-curvature="0"
     id="path1063"
     overflow="visible"
     font-weight="400"
     style="color:#000000;font-weight:400;line-height:normal;font-family:sans-serif;text-indent:0;text-align:start;text-decoration:none;text-decoration-line:none;text-decoration-style:solid;text-decoration-color:#000000;text-transform:none;white-space:normal;overflow:visible;isolation:auto;mix-blend-mode:normal;fill:#ffffff;fill-opacity:1;marker:none"
     d="m 11.999999,7.000002 v 2 h -2 v 1 h 2 v 2 h 1 v -2 h 2 v -1 h -2 v -2 z" />
  <path
     style="opacity:1;fill:#c7162b;fill-opacity:1;stroke:none;stroke-width:2;stroke-linejoin:round;stroke-miterlimit:4;stroke-dasharray:none;stroke-opacity:1"
     d="M 3,3 H 6 V 4 H 3 Z"
     id="rect865"
     inkscape:connector-curvature="0"
     sodipodi:nodetypes="ccccc" />
  <path
     inkscape:connector-curvature="0"
     style="opacity:1;fill:#46a926;fill-opacity:1;stroke:none;stroke-width:2;stroke-linejoin:round;stroke-miterlimit:4;stroke-dasharray:none;stroke-opacity:1"
     d="m 4,5.9999999 v 1 H 3 V 8 H 4 V 9 H 5 V 8 H 6 V 6.9999999 H 5 v -1 z"
     id="rect867"
     sodipodi:nodetypes="ccccccccccccc" />
  <path
     sodipodi:nodetypes="ccccccccccccc"
     id="path867"
     d="M 4,9.9999999 V 11 H 3 v 1 h 1 v 1 H 5 V 12 H 6 V 11 H 5 V 9.9999999 Z"
     style="opacity:1;fill:#46a926;fill-opacity:1;stroke:none;stroke-width:2;stroke-linejoin:round;stroke-miterlimit:4;stroke-dasharray:none;stroke-opacity:1"
     inkscape:connector-curvature="0" />
</svg>

<svg xmlns="http://www.w3.org/2000/svg" viewBox="0 0 16 16"><path d="M2 2h12v11H2z" fill="#fff"/><path d="M4 1C2 1 1 1 1 3v9c0 2 1 2 3 2h8c2 0 3 0 3-2V3c0-2-1-2-3-2zM2 3c0-1 1-1 2-1h8c1 0 2 0 2 1v9c0 1-1 1-2 1H4c-1 0-2 0-2-1z" fill="#6d6d6d"/><path d="M2 5h12v1H2zM2 9h12v1H2z" fill="#6d6d6d"/><path fill="#6d6d6d" d="M7 2h1v11H7z"/><circle r="3.5" cx="9.5" cy="12.5" fill="#c7162b"/><path d="M7 12v1h5v-1z" style="line-height:normal;text-indent:0;text-align:start;text-decoration-line:none;text-decoration-style:solid;text-decoration-color:#000;text-transform:none;white-space:normal;isolation:auto;mix-blend-mode:normal;marker:none" font-weight="400" overflow="visible" color="#000" font-family="sans-serif" fill="#fff"/><circle cy="9.5" cx="12.5" r="3.5" fill="#46a926"/><path overflow="visible" font-weight="400" style="line-height:normal;text-indent:0;text-align:start;text-decoration-line:none;text-decoration-style:solid;text-decoration-color:#000;text-transform:none;white-space:normal;isolation:auto;mix-blend-mode:normal;marker:none" d="M12 7v2h-2v1h2v2h1v-2h2V9h-2V7z" color="#000" font-family="sans-serif" fill="#fff"/><path d="M3 3h3v1H3z" fill="#c7162b"/><path d="M4 6v1H3v1h1v1h1V8h1V7H5V6zM4 10v1H3v1h1v1h1v-1h1v-1H5v-1z" fill="#46a926"/></svg>
